src/rounded/icons/fi-rr-target.svg

<svg id="Layer_1" height="512" viewBox="0 0 24 24" width="512" xmlns="http://www.w3.org/2000/svg" data-name="Layer 1"><path d="m12 0a12 12 0 1 0 12 12 12.013 12.013 0 0 0 -12-12zm1 21.949v-1.949a1 1 0 0 0 -2 0v1.949a10.015 10.015 0 0 1 -8.949-8.949h1.949a1 1 0 0 0 0-2h-1.949a10.015 10.015 0 0 1 8.949-8.949v1.949a1 1 0 0 0 2 0v-1.949a10.015 10.015 0 0 1 8.949 8.949h-1.949a1 1 0 0 0 0 2h1.949a10.015 10.015 0 0 1 -8.949 8.949zm3-9.949a1 1 0 0 1 -1 1h-2v2a1 1 0 0 1 -2 0v-2h-2a1 1 0 0 1 0-2h2v-2a1 1 0 0 1 2 0v2h2a1 1 0 0 1 1 1z"/></svg>

<svg id="Layer_1" data-name="Layer 1" xmlns="http://www.w3.org/2000/svg" viewBox="0 0 24 24"><path d="M12,0A12,12,0,1,0,24,12,12.013,12.013,0,0,0,12,0Zm1,21.949V20a1,1,0,0,0-2,0v1.949A10.015,10.015,0,0,1,2.051,13H4a1,1,0,0,0,0-2H2.051A10.015,10.015,0,0,1,11,2.051V4a1,1,0,0,0,2,0V2.051A10.015,10.015,0,0,1,21.949,11H20a1,1,0,0,0,0,2h1.949A10.015,10.015,0,0,1,13,21.949ZM16,12a1,1,0,0,1-1,1H13v2a1,1,0,0,1-2,0V13H9a1,1,0,0,1,0-2h2V9a1,1,0,0,1,2,0v2h2A1,1,0,0,1,16,12Z"/></svg>
